X:18
T:Dick's Maggot
M:3/2
R:three-two hornpipe
L:1/4
K:G
gd2 B2A | B/c/d A/B/c BG | g d2 B2 A | B/c/d GFG2 ::
K:D
fa2 f2d | g/a/b e/f/g f2d2 | f a2 f2 d | d/e/f Ac d2 |
K:G
B/c/d B/c/d e2 | e/f/g e/f/g f2 | g d2 B2 c | A4 G2 :|
